X:736
T:Miss Mary Printy 
C:Joe Buchanan's Scottish Tome - Page 651.2
I:651 2
C:Iain MacPhail
R:Reel
Z:Carl Allison
L:1/8
M:2/4
K:F
C |: "Bb"F"F7"F "C#7"AA | d^c/2d/2 e/2d/2A/2F/2 | "G"G"Cm"G "D"B"Gm"B | c^B/2c/2 e/2c/2=A/2G/2 |
"F"F"F7"F AA | c^B/2c/2 e/2d/2A/2F/2 | "G"G"Cm"G "D"c/2A/2"Gm"G/2E/2 | FF FC/D/E/ :|
F/A/B/ :| "F"c"Fm"A/c/ "C"F/c/"Fm"A/c/ | cA/c/ F/c/A/c/ | "C"c"C7"B/c/ "G"E/c/"C7"B/c/ | cB/c/ E/c/B/c/ |
"F"c"Fm"A/c/ "C"F/c/"Fm"A/c/ | cA/c/ F/c/A/c/ | cA/c/ "G"B/G/"Cm"E/G/ | "F"F"Fm"F "C"F"Fm"A/B/ :|
%
W:Errata: Worst chords I've ever encountered. I leave it to someone else's imagination to correct them!

